X:145
T: Summerhill #1 (polka)
C: S.O Driscoll
Z: B.Black
M: 2/4
L: 1/8
R: polka
K: D
d>c dA | BA FD | dc dA | Be ec |
d>c dA | BA FD | EG FE | D2 D2 :|
FA AF | Ge ec | dA FA | BG EG |
FA AF | Ge ec | d/2B/2A FE | D2 D2 :|
